svg/subatic-dark.svg

<svg xmlns="http://www.w3.org/2000/svg" xml:space="preserve" viewBox="0 0 512 512"><path d="M223.2 248.3c5.4 3.8 10.4 8.2 14.9 12.9l.1.1c.7.8 1.4 1.5 2.1 2.3l.2.2.5.5c.5.5.9 1.1 1.4 1.6l.5.6c.3.3.5.6.7.9.3.3.6.7.8 1.1l.6.8c.3.4.7.9 1 1.3.2.3.4.5.5.8l.4.6c.5.6.9 1.3 1.4 2 .1.2.2.4.3.5l.2.2c.6.9 1.1 1.7 1.7 2.6l.2.3c1.5 2.5 2.9 5.1 4.2 7.7 2.3-4.7 5-9.9 8.7-14.6 20.4-26.9 50.5-40.3 73.1-46.9-6.4-6.9-13.7-13-19.9-20-22.4-24.5-36.3-55.5-45-87.2-5.1-19.5-9.5-39.4-11.9-59.5-2.9-18-2.4-36.2-4.8-54.2-2.5 14.8-2.1 29.9-4.1 44.7-2 18.3-5.8 36.4-9.8 54.3-7.3 29.8-18.1 59.2-35.6 84.6-6.9 9.8-14.8 18.8-23.4 27.1-3.4 3.4-7 6.6-10.2 10.1 17.5 4.6 34.7 12.9 51.2 24.6m32.6-50.9h3.9c5.2 0 10.4-.1 15.7-.1 4 0 7.9.1 11.9.3-4.6 6.9-10.4 12.7-15.5 19.1-2.5 2.9-4.9 5.9-7.4 8.8-1.4 1.7-2.9 3.4-4.4 5.1-1.7 1.9-3.4 3.7-5.3 5.5v-.1l-.1.1c-11.2-12.2-21.8-25.1-31.8-38.4 11-.7 22-.3 33-.3m256.1 28.2h.1c0-.1-.1-.1-.1 0v-.1c-2.7-.4-5.5-.8-8.2-1.2-19.7-3-40.1-6.1-60.3-6.5-18.6-.3-39.7-.6-60.2 2.6-11 1.2-21.9 3.7-32.4 6.2-3.1.7-6.4 1.5-9.6 2.2-22.2 6.1-52.7 19.1-72.8 45.6-4.2 5.3-7.1 11.4-9.9 17.4-1.3 2.8-2.7 5.7-4.2 8.5-2-6.9-4.9-13.4-8.6-19.5-.1-.1-.1-.2-.2-.3-.5-.8-1-1.6-1.6-2.4-.2-.2-.3-.5-.5-.7-.5-.7-.9-1.3-1.4-2-.3-.4-.5-.7-.7-1.1-.4-.5-.8-1.1-1.2-1.6s-.7-.9-1.1-1.4c-.3-.4-.7-.8-1-1.2-.5-.6-1-1.2-1.5-1.7-.2-.2-.4-.5-.6-.7-.6-.7-1.3-1.4-1.9-2.1l-.1-.1c-4.2-4.4-8.9-8.5-14.1-12.2-16.7-11.9-34.2-20.1-52.1-24.4-21.6-5.3-47.4-10.7-74.1-11-15.7-.1-31.9-.2-47.7 1.6-15.8 1.7-31.2 3.9-45.7 6.3v.2c3.7.5 7.5.9 11.2 1.2s7.5.7 11.2 1.2c29.7 4.2 59.6 14.5 89 30.7 37.4 21 69 49.7 91.5 82.9 1.6 2.5 3.3 5 5 7.4 4.1 6 8.4 12.2 11.3 19 1.6 3.4 3.2 6.9 4.8 10.2 3 6.3 6.1 12.8 8.5 19.5 8.7 24.1 14.8 51.1 19.3 84.9.5 3.1.7 6.4 1 9.5.4 5.6.9 11.3 2.3 16.8h.1c1.5-10.5 2.7-21.1 4.1-31.7.1-1.1.3-2.1.4-3.2.1-.4.1-.9.2-1.3.3-1.8.5-3.6.8-5.4.1-.3.1-.7.2-1 .2-1.3.4-2.6.6-4 .1-.8.3-1.6.4-2.4.2-.9.3-1.8.5-2.7.2-1 .3-1.9.5-2.9.7-3.8 1.5-7.6 2.4-11.3.2-1 .4-2 .7-3 .2-.9.4-1.9.6-2.8.4-1.6.7-3.1 1.1-4.7.4-1.5.7-2.9 1.1-4.4.3-1.3.7-2.7 1.1-4 .3-1.1.6-2.1.9-3.2 1-3.6 2-7.2 3.2-11 2.1-7.1 5.1-14 8-20.6 1.6-3.6 3.2-7.3 4.7-11 3.8-10.1 9.9-19.3 15.7-28.2-5.9 8.9-11.9 18-15.7 28.1 4.7-12.6 12.8-23.5 20-34.7 11.4-17.5 25.6-32.9 40.8-47.1 39.3-35.3 88.4-60.2 140.9-68.4 7.5-1.2 15.2-1.5 22.7-2.7h.3c-.1 0 .1 0 .3-.1m-338 80.8c-1.2-1.2-2.4-2.4-3.7-3.6 1.3 1.2 2.5 2.4 3.7 3.6m-81.5-57.1c-.8-.4-1.6-.8-2.5-1.1.9.3 1.7.7 2.5 1.1m-5.3-2.4-2.7-1.2zm-5.3-2.2c-1-.4-2-.8-3.1-1.2 1.1.3 2.1.8 3.1 1.2m-26.1-9.2c-11.1-3.3-22.2-5.7-33.2-7.2 11.3 1.5 22.4 4 33.2 7.2m20.9 7.1c-1.2-.4-2.3-.9-3.5-1.3 1.2.4 2.3.8 3.5 1.3m-5.2-2c-1.3-.5-2.6-1-3.9-1.4 1.2.5 2.5.9 3.9 1.4m-5.3-1.8c-1.5-.5-3-1-4.4-1.5 1.5.5 3 1 4.4 1.5m-5.2-1.7c-1.6-.5-3.3-1-4.9-1.5 1.6.4 3.3.9 4.9 1.5m34.5 13.6 2.4 1.2zm5.5 2.6c.9.4 1.7.9 2.6 1.3-.9-.4-1.8-.8-2.6-1.3m61.6 42.2c-1-.9-2-1.7-3-2.6 1.1.9 2.1 1.7 3 2.6m-5.9-5.2c-.8-.7-1.7-1.4-2.5-2.1.8.7 1.7 1.4 2.5 2.1m-6.1-5c-.6-.5-1.3-1-1.9-1.5.6.4 1.2.9 1.9 1.5m-6.3-4.9c-.5-.3-.9-.7-1.4-1 .5.3 1 .6 1.4 1m-6.3-4.7c-.3-.2-.5-.4-.8-.6.2.2.5.4.8.6m-6.5-4.5c-.1-.1-.2-.1-.2-.2.1.1.1.2.2.2m44 36.8c1.3 1.3 2.6 2.7 3.9 4.1-1.3-1.5-2.6-2.8-3.9-4.1m5.1 5.4c1.3 1.5 2.7 2.9 4 4.4-1.4-1.5-2.7-3-4-4.4m5 5.6c1.3 1.5 2.6 3.1 3.9 4.6-1.3-1.5-2.6-3.1-3.9-4.6m5 5.9c1.2 1.5 2.5 3.1 3.7 4.6-1.2-1.5-2.5-3-3.7-4.6m5 6.5c1.1 1.4 2.2 2.8 3.2 4.3-1-1.5-2.1-2.9-3.2-4.3m11.2 15.9c-.6-.9-1.3-1.9-1.9-2.8.6.9 1.3 1.9 1.9 2.8m12.7 21.1c-2.7-6.3-6.5-12.1-10.3-17.7 3.9 5.6 7.6 11.3 10.3 17.6 2.9 6.5 6.1 12.9 9.1 19.4-1.4-3.1-2.8-6.1-4.3-9.1-1.6-3.3-3.3-6.8-4.8-10.2m10.6 22.9c-.3-.8-.7-1.5-1-2.3.4.8.7 1.5 1 2.3m32.1 68.5.3-1.5zm3.3-16.5c-.4 1.6-.7 3.2-1.1 4.8.4-1.6.7-3.2 1.1-4.8m-2 9.8c.1-.8.3-1.5.4-2.3-.2.8-.3 1.5-.4 2.3m13.3-50.8c.1-.2.1-.3.2-.5-.1.1-.1.3-.2.5m-1.6 4.5c.1-.4.3-.9.4-1.3-.1.4-.3.8-.4 1.3"/></svg>

<?xml version="1.0" encoding="utf-8"?>
<!-- Generator: Adobe Illustrator 28.2.0, SVG Export Plug-In . SVG Version: 6.00 Build 0)  -->
<svg version="1.1" id="Layer_1" xmlns="http://www.w3.org/2000/svg" xmlns:xlink="http://www.w3.org/1999/xlink" x="0px" y="0px"
	 viewBox="0 0 512 512" style="enable-background:new 0 0 512 512;" xml:space="preserve">
<path d="M223.2,248.3c5.4,3.8,10.4,8.2,14.9,12.9l0.1,0.1c0.7,0.8,1.4,1.5,2.1,2.3l0.2,0.2c0.2,0.2,0.3,0.3,0.5,0.5
	c0.5,0.5,0.9,1.1,1.4,1.6l0.5,0.6c0.3,0.3,0.5,0.6,0.7,0.9c0.3,0.3,0.6,0.7,0.8,1.1l0.6,0.8c0.3,0.4,0.7,0.9,1,1.3
	c0.2,0.3,0.4,0.5,0.5,0.8l0.4,0.6c0.5,0.6,0.9,1.3,1.4,2c0.1,0.2,0.2,0.4,0.3,0.5l0.2,0.2c0.6,0.9,1.1,1.7,1.7,2.6l0.2,0.3
	c1.5,2.5,2.9,5.1,4.2,7.7c2.3-4.7,5-9.9,8.7-14.6c20.4-26.9,50.5-40.3,73.1-46.9c-6.4-6.9-13.7-13-19.9-20
	c-22.4-24.5-36.3-55.5-45-87.2c-5.1-19.5-9.5-39.4-11.9-59.5c-2.9-18-2.4-36.2-4.8-54.2c-2.5,14.8-2.1,29.9-4.1,44.7
	c-2,18.3-5.8,36.4-9.8,54.3c-7.3,29.8-18.1,59.2-35.6,84.6c-6.9,9.8-14.8,18.8-23.4,27.1c-3.4,3.4-7,6.6-10.2,10.1
	C189.5,228.3,206.7,236.6,223.2,248.3z M255.8,197.4c1.3,0,2.6,0,3.9,0c5.2,0,10.4-0.1,15.7-0.1c4,0,7.9,0.1,11.9,0.3
	c-4.6,6.9-10.4,12.7-15.5,19.1c-2.5,2.9-4.9,5.9-7.4,8.8c-1.4,1.7-2.9,3.4-4.4,5.1c-1.7,1.9-3.4,3.7-5.3,5.5c0,0,0,0,0-0.1
	c0,0,0,0-0.1,0.1c-11.2-12.2-21.8-25.1-31.8-38.4C233.8,197,244.8,197.4,255.8,197.4z M511.9,225.6c0,0,0.1,0,0.1,0
	C512,225.5,511.9,225.5,511.9,225.6v-0.1c-2.7-0.4-5.5-0.8-8.2-1.2c-19.7-3-40.1-6.1-60.3-6.5c-18.6-0.3-39.7-0.6-60.2,2.6
	c-11,1.2-21.9,3.7-32.4,6.2c-3.1,0.7-6.4,1.5-9.6,2.2c-22.2,6.1-52.7,19.1-72.8,45.6c-4.2,5.3-7.1,11.4-9.9,17.4
	c-1.3,2.8-2.7,5.7-4.2,8.5c-2-6.9-4.9-13.4-8.6-19.5c-0.1-0.1-0.1-0.2-0.2-0.3c-0.5-0.8-1-1.6-1.6-2.4c-0.2-0.2-0.3-0.5-0.5-0.7
	c-0.5-0.7-0.9-1.3-1.4-2c-0.3-0.4-0.5-0.7-0.7-1.1c-0.4-0.5-0.8-1.1-1.2-1.6c-0.4-0.5-0.7-0.9-1.1-1.4c-0.3-0.4-0.7-0.8-1-1.2
	c-0.5-0.6-1-1.2-1.5-1.7c-0.2-0.2-0.4-0.5-0.6-0.7c-0.6-0.7-1.3-1.4-1.9-2.1c0,0-0.1-0.1-0.1-0.1c-4.2-4.4-8.9-8.5-14.1-12.2
	c-16.7-11.9-34.2-20.1-52.1-24.4c-21.6-5.3-47.4-10.7-74.1-11c-15.7-0.1-31.9-0.2-47.7,1.6c-15.8,1.7-31.2,3.9-45.7,6.3v0.2
	c3.7,0.5,7.5,0.9,11.2,1.2c3.7,0.3,7.5,0.7,11.2,1.2c29.7,4.2,59.6,14.5,89,30.7c37.4,21,69,49.7,91.5,82.9c1.6,2.5,3.3,5,5,7.4
	c4.1,6,8.4,12.2,11.3,19c1.6,3.4,3.2,6.9,4.8,10.2c3,6.3,6.1,12.8,8.5,19.5c8.7,24.1,14.8,51.1,19.3,84.9c0.5,3.1,0.7,6.4,1,9.5
	c0.4,5.6,0.9,11.3,2.3,16.8l0.1,0c0,0,0,0,0,0c1.5-10.5,2.7-21.1,4.1-31.7c0.1-1.1,0.3-2.1,0.4-3.2c0.1-0.4,0.1-0.9,0.2-1.3
	c0.3-1.8,0.5-3.6,0.8-5.4c0.1-0.3,0.1-0.7,0.2-1c0.2-1.3,0.4-2.6,0.6-4c0.1-0.8,0.3-1.6,0.4-2.4c0.2-0.9,0.3-1.8,0.5-2.7
	c0.2-1,0.3-1.9,0.5-2.9c0.7-3.8,1.5-7.6,2.4-11.3c0.2-1,0.4-2,0.7-3c0.2-0.9,0.4-1.9,0.6-2.8c0.4-1.6,0.7-3.1,1.1-4.7
	c0.4-1.5,0.7-2.9,1.1-4.4c0.3-1.3,0.7-2.7,1.1-4c0.3-1.1,0.6-2.1,0.9-3.2c1-3.6,2-7.2,3.2-11c2.1-7.1,5.1-14,8-20.6
	c1.6-3.6,3.2-7.3,4.7-11c3.8-10.1,9.9-19.3,15.7-28.2c-5.9,8.9-11.9,18-15.7,28.1c0,0,0,0,0,0c0,0,0,0,0,0
	c4.7-12.6,12.8-23.5,20-34.7c11.4-17.5,25.6-32.9,40.8-47.1c39.3-35.3,88.4-60.2,140.9-68.4c7.5-1.2,15.2-1.5,22.7-2.7
	c0.1,0,0.2,0,0.3,0C511.5,225.7,511.7,225.7,511.9,225.6L511.9,225.6z M173.9,306.4c-1.2-1.2-2.4-2.4-3.7-3.6
	C171.5,304,172.7,305.2,173.9,306.4z M168.3,300.9c-1.1-1.1-2.2-2.1-3.4-3.1C166.1,298.8,167.2,299.8,168.3,300.9z M92.4,249.3
	c-0.8-0.4-1.6-0.8-2.5-1.1C90.8,248.5,91.6,248.9,92.4,249.3z M87.1,246.9c-0.9-0.4-1.8-0.8-2.7-1.2
	C85.3,246.1,86.2,246.5,87.1,246.9z M81.8,244.7c-1-0.4-2-0.8-3.1-1.2C79.8,243.8,80.8,244.3,81.8,244.7z M55.7,235.5
	c-11.1-3.3-22.2-5.7-33.2-7.2C33.8,229.8,44.9,232.3,55.7,235.5z M76.6,242.6c-1.2-0.4-2.3-0.9-3.5-1.3
	C74.3,241.7,75.4,242.1,76.6,242.6z M71.4,240.6c-1.3-0.5-2.6-1-3.9-1.4C68.7,239.7,70,240.1,71.4,240.6z M66.1,238.8
	c-1.5-0.5-3-1-4.4-1.5C63.2,237.8,64.7,238.3,66.1,238.8z M60.9,237.1c-1.6-0.5-3.3-1-4.9-1.5C57.6,236,59.3,236.5,60.9,237.1z
	 M106.2,256.1c1.8,0.9,3.6,1.9,5.3,2.9C109.8,258,108,257,106.2,256.1z M95.4,250.7c0.8,0.4,1.6,0.8,2.4,1.2
	C97,251.5,96.2,251.1,95.4,250.7z M100.9,253.3c0.9,0.4,1.7,0.9,2.6,1.3C102.6,254.2,101.7,253.8,100.9,253.3z M162.5,295.5
	c-1-0.9-2-1.7-3-2.6C160.6,293.8,161.6,294.6,162.5,295.5z M156.6,290.3c-0.8-0.7-1.7-1.4-2.5-2.1
	C154.9,288.9,155.8,289.6,156.6,290.3z M150.5,285.3c-0.6-0.5-1.3-1-1.9-1.5C149.2,284.2,149.8,284.7,150.5,285.3z M144.2,280.4
	c-0.5-0.3-0.9-0.7-1.4-1C143.3,279.7,143.8,280,144.2,280.4z M137.9,275.7c-0.3-0.2-0.5-0.4-0.8-0.6
	C137.3,275.3,137.6,275.5,137.9,275.7z M131.4,271.2c-0.1-0.1-0.2-0.1-0.2-0.2C131.3,271.1,131.3,271.2,131.4,271.2z M175.4,308
	c1.3,1.3,2.6,2.7,3.9,4.1C178,310.6,176.7,309.3,175.4,308z M180.5,313.4c1.3,1.5,2.7,2.9,4,4.4
	C183.1,316.3,181.8,314.8,180.5,313.4z M185.5,319c1.3,1.5,2.6,3.1,3.9,4.6C188.1,322.1,186.8,320.5,185.5,319z M190.5,324.9
	c1.2,1.5,2.5,3.1,3.7,4.6C193,328,191.7,326.5,190.5,324.9z M195.5,331.4c1.1,1.4,2.2,2.8,3.2,4.3
	C197.7,334.2,196.6,332.8,195.5,331.4z M206.7,347.3c-0.6-0.9-1.3-1.9-1.9-2.8C205.4,345.4,206.1,346.4,206.7,347.3z M219.4,368.4
	c-2.7-6.3-6.5-12.1-10.3-17.7c3.9,5.6,7.6,11.3,10.3,17.6c2.9,6.5,6.1,12.9,9.1,19.4c-1.4-3.1-2.8-6.1-4.3-9.1
	C222.6,375.3,220.9,371.8,219.4,368.4z M230,391.3c-0.3-0.8-0.7-1.5-1-2.3C229.4,389.8,229.7,390.5,230,391.3z M262.1,459.8
	c0.1-0.5,0.2-1,0.3-1.5C262.3,458.8,262.2,459.3,262.1,459.8z M265.4,443.3c-0.4,1.6-0.7,3.2-1.1,4.8
	C264.7,446.5,265,444.9,265.4,443.3C265.4,443.3,265.4,443.3,265.4,443.3C265.4,443.3,265.4,443.3,265.4,443.3z M263.4,453.1
	c0.1-0.8,0.3-1.5,0.4-2.3C263.6,451.6,263.5,452.3,263.4,453.1z M274,410.2C274,410.2,274,410.2,274,410.2
	C274,410.2,274,410.2,274,410.2C274,410.2,274,410.2,274,410.2C274,410.2,274,410.2,274,410.2z M276.7,402.3
	c0.1-0.2,0.1-0.3,0.2-0.5C276.8,401.9,276.8,402.1,276.7,402.3z M275.1,406.8c0.1-0.4,0.3-0.9,0.4-1.3
	C275.4,405.9,275.2,406.3,275.1,406.8z"/>
</svg>
